X:657
T: DA DROBEN VOR DER HIMMLISCHEN THUER
N: E2036
O: Europa, Mitteleuropa, Deutschland, Hessen, Wetterau; Wetterfeld
R: geistlich, Wallfahrts - Lied
M: 3/4
L: 1/8
K: F
C2 | F2A2cA | G2FE
DC | F2A2cA | G4
cc | d3cBd | c3B
A2 | B2A2G2 | F4
cc | d3cBd | c3B
A2 | B2A2G2 | F4

